images/icons/email.svg

<svg fill="none" height="24" viewBox="0 0 24 24" width="24" xmlns="http://www.w3.org/2000/svg" xmlns:xlink="http://www.w3.org/1999/xlink"><clipPath id="a"><path d="m0 0h24v24h-24z"/></clipPath><g clip-path="url(#a)"><path d="m21.6 2h-19.2c-1.32 0-2.388 1.08-2.388 2.4l-.012 14.4c0 1.32 1.08 2.4 2.4 2.4h19.2c1.32 0 2.4-1.08 2.4-2.4v-14.4c0-1.32-1.08-2.4-2.4-2.4zm0 4.8-9.6 6-9.6-6v-2.4l9.6 6 9.6-6z" fill="#fff"/></g></svg>

<svg width="24" height="24" viewBox="0 0 24 24" fill="none" xmlns="http://www.w3.org/2000/svg">
<path d="M21.6 2H2.4C1.08 2 0.012 3.08 0.012 4.4L0 18.8C0 20.12 1.08 21.2 2.4 21.2H21.6C22.92 21.2 24 20.12 24 18.8V4.4C24 3.08 22.92 2 21.6 2ZM21.6 6.8L12 12.8L2.4 6.8V4.4L12 10.4L21.6 4.4V6.8Z" fill="white"/>
</svg>
